symbolic/32x32/apps/grass.svg

<svg xmlns="http://www.w3.org/2000/svg" width="32" height="32" version="1">
 <path style="opacity:0.2" d="M 8.4820377,9.1428586 3.7335403,14.841794 c -0.9789372,1.174705 -0.9776228,3.140303 0.00136,4.315008 L 13.701182,31.11829 c 0.978937,1.174705 2.618039,1.176053 3.596977,0.0014 l 9.967639,-11.961521 c 0.978936,-1.174705 0.978937,-3.141698 0,-4.316403 L 22.5173,9.1428586 Z"/>
 <path style="fill:#4f4f4f" d="M 8.4820377,8.1428552 3.7335403,13.841791 c -0.9789372,1.174705 -0.9776228,3.140303 0.00136,4.315008 l 9.9662817,11.961488 c 0.978937,1.174705 2.618039,1.176053 3.596977,0.0014 l 9.967639,-11.961521 c 0.978936,-1.174705 0.978937,-3.141698 0,-4.316403 L 22.5173,8.1428552 Z"/>
 <path style="opacity:0.2" d="m 15.499608,2.0000033 c -0.707174,0 -1.414822,0.2635851 -1.943451,0.7922028 L 2.7921906,13.557379 c -1.0572604,1.057235 -1.0557607,2.826527 0.00154,3.883763 L 13.557699,28.206315 c 1.057261,1.057235 2.828129,1.058734 3.88539,0.0016 l 10.763966,-10.76521 c 1.057259,-1.057235 1.05726,-2.828042 0,-3.885276 L 17.44306,2.7922061 C 16.914431,2.2635885 16.206783,2.0000033 15.499608,2.0000033 Z"/>
 <path style="fill:#e4e4e4" d="m 15.499608,0.99999989 c -0.707174,0 -1.414822,0.26358511 -1.943451,0.79220281 L 2.7921906,12.557376 c -1.0572604,1.057235 -1.0557607,2.826527 0.00154,3.883763 L 13.557699,27.206312 c 1.057261,1.057235 2.828129,1.058734 3.88539,0.0016 l 10.763966,-10.76521 c 1.057259,-1.057235 1.05726,-2.828042 0,-3.885276 L 17.44306,1.7922027 C 16.914431,1.2635851 16.206783,0.99999989 15.499608,0.99999989 Z"/>
 <path style="fill:#008f23" d="M 15.347656 2.9902344 L 15.205078 3.0839844 L 15.144531 3.265625 L 15.117188 3.4609375 L 15.023438 3.7695312 L 14.957031 3.6660156 L 14.988281 4.0429688 L 14.96875 4.1269531 L 14.96875 4.2695312 L 15.023438 4.3808594 L 15.072266 4.5332031 L 15.166016 4.65625 L 15.205078 4.7089844 L 15.234375 4.8515625 L 15.117188 4.9394531 L 15.166016 5.0664062 L 15.050781 5.2089844 L 15.072266 5.3203125 L 15.101562 5.4335938 L 15.195312 5.5449219 L 15.277344 5.6484375 L 15.392578 5.7460938 L 15.412109 5.8300781 L 15.371094 5.953125 L 15.277344 6.0351562 L 15.234375 6.1054688 L 15.248047 6.28125 L 15.392578 6.3730469 L 15.474609 6.4609375 L 15.525391 6.6386719 L 15.371094 6.8183594 L 15.347656 6.9453125 L 15.412109 7.0878906 L 15.503906 7.2011719 L 15.503906 7.3144531 L 15.574219 7.4023438 L 15.638672 7.4746094 L 15.6875 7.5585938 L 15.658203 7.7011719 L 15.75 7.8320312 L 15.833984 7.8515625 L 15.865234 7.9160156 L 15.833984 8.0292969 L 15.914062 8.1894531 L 15.998047 8.2539062 L 16.060547 8.3847656 L 15.998047 8.6113281 L 16.091797 8.8164062 L 16.179688 8.8554688 L 16.224609 8.9492188 L 16.242188 9.2128906 L 16.193359 9.3261719 L 16.148438 9.4570312 L 16.283203 10.123047 L 16.517578 10.275391 L 16.5 13.162109 L 16.224609 16.283203 L 16.060547 18.087891 L 15.794922 20.28125 L 15.691406 20.544922 L 14.816406 19.052734 L 14.515625 17.050781 L 14.126953 13.798828 L 13.664062 10.785156 L 13.699219 13.537109 L 13.861328 15.8125 L 14.140625 17.980469 L 12.1875 14.900391 L 9.3808594 10.714844 L 8.7363281 9.8261719 L 8.6835938 9.8261719 L 8.8691406 10.359375 L 9.2207031 11.224609 L 9.7324219 12.380859 L 10.626953 14.289062 L 11.167969 15.248047 L 11.837891 16.404297 L 13.220703 18.582031 L 14.470703 20.560547 L 14.664062 22.332031 L 15.259766 26.380859 L 15.257812 26.378906 L 14.570312 24.25 L 13.113281 20.681641 L 11.951172 18.283203 L 10.410156 15.792969 L 9.6289062 14.769531 L 9.0039062 14.148438 L 7.984375 13.207031 L 8.4082031 13.726562 L 9.0917969 14.421875 L 9.4960938 14.873047 L 9.7617188 15.332031 L 10.080078 15.841797 L 10.603516 16.732422 L 11.056641 17.558594 L 11.517578 18.582031 L 12.083984 19.949219 L 13.191406 22.796875 L 14.353516 25.802734 L 15.050781 27.927734 L 15.058594 27.957031 C 15.373252 28.006981 15.69429 28.010225 16.007812 27.953125 L 15.726562 26.146484 L 15.761719 25.662109 L 15.966797 24.9375 L 16.185547 24.271484 L 16.419922 23.748047 L 17.189453 25.029297 L 17.935547 26.386719 L 17.994141 26.65625 L 19.248047 25.402344 L 19.673828 22.220703 L 20.78125 16.882812 L 21.496094 13.261719 L 22.943359 10.408203 L 23.158203 9.8164062 L 23.238281 9.4667969 L 23.267578 8.9042969 L 23.179688 8.4550781 L 22.970703 8.046875 L 22.59375 7.6699219 L 22.613281 7.7734375 L 22.798828 7.9648438 L 22.970703 8.3671875 L 22.992188 8.6894531 L 22.755859 9.3359375 L 22.451172 10.029297 L 21.794922 11.201172 L 22.160156 8.4980469 L 22.259766 7.1113281 L 22.220703 7.0703125 L 22.130859 7.0546875 L 21.396484 11.910156 L 21.259766 12.154297 L 20.052734 14.412109 L 18.513672 17.447266 L 17.21875 20.080078 L 16.5 21.916016 L 16.091797 21.220703 L 16.345703 20.697266 L 17.753906 18.009766 L 19.181641 15.640625 L 19.777344 14.486328 L 20.269531 13.525391 L 20.402344 13.199219 L 20.431641 12.878906 L 20.373047 12.634766 L 20.3125 12.634766 L 20.269531 12.849609 L 20.023438 13.412109 L 19.427734 14.412109 L 17.724609 17.015625 L 16.755859 18.445312 L 16.091797 19.615234 L 16.5 15.585938 L 16.652344 13.869141 L 16.716797 10.236328 L 16.705078 10.236328 L 16.736328 10.115234 L 16.830078 9.8886719 L 16.902344 9.6835938 L 16.992188 9.53125 L 16.992188 9.2324219 L 16.962891 8.8554688 L 17.095703 8.6113281 L 17.035156 8.2539062 L 17.035156 7.984375 L 17.085938 7.8320312 L 17.189453 7.4941406 L 17.261719 7.3144531 L 17.125 7.0878906 L 17.242188 6.8632812 L 17.054688 6.7304688 L 16.941406 6.3945312 L 17.103516 6.1289062 L 16.876953 6.0566406 L 16.779297 5.8789062 L 16.779297 5.7285156 L 16.677734 5.5566406 L 16.572266 5.4628906 L 16.583984 5.3203125 L 16.583984 5.1640625 L 16.533203 4.7382812 L 16.5 4.4941406 L 16.345703 4.3808594 L 16.273438 4.2480469 L 16.099609 4.1660156 L 15.998047 3.9804688 L 16.015625 3.7695312 L 15.998047 3.5546875 L 15.882812 3.3691406 L 15.6875 3.328125 L 15.503906 3.265625 L 15.412109 3.1328125 L 15.347656 2.9902344 z M 20.703125 14.779297 L 20.505859 15.597656 L 19.615234 19.140625 L 19.181641 21.152344 L 18.728516 23.585938 L 18.226562 25.171875 L 18.050781 24.761719 L 16.908203 22.65625 L 17.291016 21.769531 L 18.541016 19.166016 L 19.210938 17.765625 L 20.107422 15.884766 L 20.703125 14.779297 z M 21.810547 17.417969 L 21.646484 18.357422 L 21.183594 19.917969 L 20.722656 21.074219 L 20.210938 22.578125 L 19.939453 24.054688 L 19.8125 24.837891 L 20.677734 23.972656 L 20.751953 23.378906 L 20.998047 22.205078 L 21.535156 20.105469 L 21.779297 18.548828 L 21.810547 17.417969 z M 8.3046875 18.425781 L 8.34375 18.464844 L 8.3320312 18.445312 L 8.3046875 18.425781 z M 8.34375 18.464844 L 8.9277344 19.570312 L 9.4648438 20.810547 L 10.273438 22.636719 L 10.626953 23.443359 L 11.041016 24.689453 L 13.177734 26.826172 L 13 26.162109 L 12.625 25.455078 L 11.808594 23.904297 L 10.65625 21.837891 L 9.84375 20.511719 L 9.0917969 19.367188 L 8.6835938 18.802734 L 8.34375 18.464844 z M 15.185547 21.701172 L 15.558594 22.322266 L 15.480469 23.771484 L 15.419922 23.814453 L 15.185547 21.701172 z M 15.816406 22.744141 L 16.03125 23.101562 L 15.865234 23.492188 L 15.740234 23.580078 L 15.816406 22.744141 z"/>
 <path style="fill:#ffffff;opacity:0.2" d="M 15.5 1 C 14.792826 1 14.08527 1.2643511 13.556641 1.7929688 L 2.7929688 12.556641 C 2.1414889 13.208105 1.8950295 14.131235 2.046875 14.990234 C 2.14348 14.462245 2.3920834 13.957516 2.7929688 13.556641 L 13.556641 2.7929688 C 14.08527 2.2643511 14.792826 2 15.5 2 C 16.207175 2 16.91473 2.2643512 17.443359 2.7929688 L 28.207031 13.556641 C 28.610343 13.959943 28.857515 14.468244 28.953125 15 C 29.108151 14.137786 28.860979 13.210573 28.207031 12.556641 L 17.443359 1.7929688 C 16.91473 1.2643511 16.207175 1 15.5 1 z"/>
</svg>

<svg xmlns="http://www.w3.org/2000/svg" width="32" height="32" version="1"><path style="opacity:.2" d="m8.482 9.143-4.748 5.699c-.98 1.174-.978 3.14 0 4.315l9.967 11.961c.98 1.175 2.618 1.176 3.597.002l9.968-11.962c.979-1.175.979-3.142 0-4.316l-4.749-5.7z"/><path style="fill:#4f4f4f" d="m8.482 8.143-4.748 5.699c-.98 1.174-.978 3.14 0 4.315l9.967 11.961c.98 1.175 2.618 1.176 3.597.002l9.968-11.962c.979-1.175.979-3.142 0-4.316l-4.749-5.7z"/><path style="opacity:.2" d="M15.5 2a2.74 2.74 0 0 0-1.944.792L2.792 13.557c-1.057 1.058-1.056 2.827.002 3.884l10.764 10.765c1.057 1.058 2.828 1.059 3.885.002l10.764-10.765c1.057-1.058 1.057-2.828 0-3.886L17.443 2.792A2.74 2.74 0 0 0 15.5 2z"/><path style="fill:#e4e4e4" d="M15.5 1a2.74 2.74 0 0 0-1.944.792L2.792 12.557c-1.057 1.058-1.056 2.827.002 3.884l10.764 10.765c1.057 1.058 2.828 1.059 3.885.002l10.764-10.765c1.057-1.058 1.057-2.828 0-3.886L17.443 1.792A2.74 2.74 0 0 0 15.5 1z"/><path style="fill:#008f23" d="m15.348 2.99-.143.094-.06.182-.028.195-.094.309-.066-.104.031.377-.02.084v.143l.055.11.05.153.093.123.04.053.028.143-.117.087.049.127-.115.143.021.111.03.114.093.11.082.104.116.098.02.084-.042.123-.094.082-.043.07.014.176.145.092.082.088.05.178-.154.18-.023.126.064.143.092.113v.113l.07.088.065.073.049.084-.03.142.092.131.084.02.031.064-.031.113.08.16.084.065.063.13-.063.227.094.205.088.04.045.093.017.264-.049.113-.045.131.135.666.235.152-.018 2.887-.275 3.121-.164 1.805-.266 2.193-.104.264-.875-1.492-.3-2.002-.389-3.252-.463-3.014.035 2.752.162 2.275.28 2.168-1.954-3.08-2.806-4.185-.645-.889h-.052l.185.533.352.866.511 1.156.895 1.908.541.959.67 1.156 1.383 2.178 1.25 1.979.193 1.771.596 4.049-.002-.002-.688-2.129-1.457-3.568-1.162-2.399-1.54-2.49-.782-1.023-.625-.622-1.02-.941.424.52.684.695.404.451.266.459.318.51.524.89.453.827.46 1.023.567 1.367 1.107 2.848 1.163 3.006.697 2.125.008.029c.314.05.635.053.949-.004l-.281-1.807.035-.484.205-.724.219-.667.234-.523.77 1.281.746 1.358.058.27 1.254-1.255.426-3.181 1.107-5.338.715-3.621 1.447-2.854.215-.592.08-.35.03-.562-.088-.449-.21-.408-.376-.377.02.103.185.192.172.402.021.322-.236.647-.305.693-.656 1.172.365-2.703.1-1.387-.04-.04-.09-.016-.734 4.855-.136.244-1.207 2.258-1.54 3.035-1.294 2.633-.719 1.836-.408-.695.254-.524 1.408-2.687 1.428-2.37.595-1.154.493-.96.132-.327.03-.32-.059-.244h-.06l-.043.215-.247.562-.595 1-1.703 2.604-.97 1.43-.663 1.17.408-4.03.152-1.717.065-3.633h-.012l.031-.12.094-.227.072-.205.09-.153v-.299l-.03-.377.134-.244-.06-.357v-.27l.05-.152.103-.338.073-.18-.137-.226.117-.225-.187-.133-.114-.335.163-.266-.227-.072-.098-.178v-.15l-.101-.172-.106-.094.012-.143v-.156l-.05-.426-.034-.244-.154-.113-.073-.133-.173-.082-.102-.186.018-.21-.018-.215-.115-.186-.195-.04-.184-.063-.092-.133-.064-.143zm5.355 11.79-.197.818-.89 3.543-.434 2.011-.453 2.434-.502 1.586-.176-.41-1.143-2.106.383-.886 1.25-2.604.67-1.4.896-1.881.596-1.106zm1.108 2.638-.165.94-.462 1.56-.461 1.156-.512 1.504-.272 1.477-.127.783.866-.865.074-.594.246-1.174.537-2.1.244-1.556.032-1.131zM8.305 18.426l.039.039-.012-.02-.027-.02zm.039.039.584 1.105.537 1.24.808 1.827.354.806.414 1.246 2.137 2.137-.178-.664-.375-.707-.816-1.55-1.153-2.067-.812-1.326-.752-1.145-.408-.564-.34-.338zm6.842 3.236.373.621-.079 1.45-.06.042-.234-2.113zm.63 1.043.215.358-.166.39-.125.088.076-.836z"/><path style="fill:#fff;opacity:.2" d="M15.5 1c-.707 0-1.415.264-1.943.793L2.793 12.557c-.652.651-.898 1.574-.746 2.433a2.71 2.71 0 0 1 .746-1.433L13.557 2.793A2.741 2.741 0 0 1 15.5 2c.707 0 1.415.264 1.943.793l10.764 10.764c.403.403.65.911.746 1.443a2.763 2.763 0 0 0-.746-2.443L17.443 1.793A2.741 2.741 0 0 0 15.5 1z"/></svg>
